X:1
T:Boatman
C:Daniel Decatur Emmett
M:C|
L:1/4
K:A
"A"ea a/g/a/a/ | baa>a |ba "D"f/g/a/f/|"E7"e/c/B/c/ "A"A2:|
"D"f/e/d/f/ "A"ee|"D"f/e/d/f/ "A" e2 | "D"f/e/d "A"e/d/c | "E7" B/A/ G "A"A2:|
"A"AAc/B/A |e>f e2 | AAc/B/A |"F#m"F>EF F | 
"A"AAc/B/A |e>f e2 |"D"f/e/d "A"e/d/c | "E7" B/A/ G "A"A2:|
